X:3504
T:Major Ian Stewart
P:The Scottish Horse
C:The Marchioness of Tullibardine
B:RSCDS 35-4
Z:Anselm Lingnau <anselm@strathspey.org>
R:Jig (8x32)
M:6/8
L:1/8
K:A
A/B/|"A"c3 e>cA|"D"d>ef a2 f|"A"e>dc cAe|"E"B3 B2 A/B/|\
     "A"c3 e>cA|"D"d>ef afd|
                         "A"e>cA "E7"B2 e|"A"A3 A2:|\
e|"A"a2 e A2 e|"D"d2 f a2 f|"A"e>dc cAe|"E"B3 B2 A/B/|
     "A"c3 e>cA|"D"d>ef a2 f|"A"e>cA "E7"B2 e|"A"A3 A2 e|\
  "A"a2 e A2 e|"D"d2 f a2 f|
                      "A"e>dc "F#m"cAe|"Bm"[B3F3D3] "E"[B2G2E2] e/d/|\
  "A"caA eaA|"D"faA dfA|"A"ceA "E7"B2 e|"A"A3 A2|]

